X:95
T:The Miller's Wife of Blaydon
Z:Jack Campin, http://www.campin.me.uk/
S:Northumbrian Minstrelsy
M:C
L:1/8
P:ABA
K:C
P:A
e|d B G B A2  e c|d B G B d2 (g`e)|d B G B  A A e g|d B G B d2 g||
P:B
f|g d B d A A e f|g d B c d2  g f |g d B d  A A e g|d B G B d2 g|]

